X:60
T:Whelan's
R:jig
M:6/8
L:1/8
Q:3/8=120
K:Edor
|:~E3 BAF|FEB AFD|~E3 BAF|dAF FED|
~E3 BAF|FEB AFA|B/c/dB BAF|dAF FED:|
|:BAB ~e3|fed e2d|BAB g2e|fdB AFA|
~B3 ede|fed e2 f|gbg faf|edB AFA:|
